src/assets/duotone/Iost.svg

<svg width="24" height="24" viewBox="0 0 24 24"  xmlns="http://www.w3.org/2000/svg">
<path opacity="0.4" d="M10.99 2.59977L4.48999 6.41977C3.87999 6.77977 3.5 7.43977 3.5 8.13977V15.8498C3.5 16.5598 3.87999 17.2098 4.48999 17.5698L10.99 21.3898C11.62 21.7598 12.39 21.7598 13.02 21.3898L19.52 17.5698C20.13 17.2098 20.51 16.5498 20.51 15.8498V8.13977C20.51 7.42977 20.13 6.77977 19.52 6.41977L13.02 2.59977C12.39 2.22977 11.61 2.22977 10.99 2.59977Z" />
<path d="M17.39 14.3591L14.78 12.7891L15.04 12.5291C15.33 12.2391 15.33 11.7591 15.04 11.4691C14.75 11.1791 14.27 11.1791 13.98 11.4691L13.46 11.9891L11.66 10.9091L12.04 10.5291C12.33 10.2391 12.33 9.75914 12.04 9.46914C11.75 9.17914 11.27 9.17914 10.98 9.46914L10.33 10.1191L8.46002 8.99914L12 6.86914L16.61 9.63914C16.97 9.84914 17.43 9.73914 17.64 9.37914C17.85 9.02914 17.74 8.55914 17.38 8.34914L12.38 5.34914C12.14 5.20914 11.84 5.20914 11.61 5.34914L6.60999 8.34914C6.37999 8.48914 6.25 8.72914 6.25 8.98914C6.25 9.24914 6.38999 9.49914 6.60999 9.62914L9.21997 11.1991L8.96002 11.4591C8.67002 11.7491 8.67002 12.2291 8.96002 12.5191C9.11002 12.6691 9.29999 12.7391 9.48999 12.7391C9.67999 12.7391 9.87002 12.6691 10.02 12.5191L10.54 11.9991L12.34 13.0791L11.96 13.4591C11.67 13.7491 11.67 14.2291 11.96 14.5191C12.11 14.6691 12.3 14.7391 12.49 14.7391C12.68 14.7391 12.87 14.6691 13.02 14.5191L13.67 13.8691L15.53 14.9891L12 17.1291L7.39001 14.3591C7.03001 14.1491 6.56999 14.2591 6.35999 14.6191C6.14999 14.9791 6.26 15.4391 6.62 15.6491L11.62 18.6491C11.74 18.7191 11.87 18.7591 12.01 18.7591C12.15 18.7591 12.28 18.7191 12.4 18.6491L17.4 15.6491C17.63 15.5091 17.76 15.2691 17.76 15.0091C17.76 14.7491 17.61 14.4891 17.39 14.3591Z" />
</svg>

<?xml version="1.0" encoding="UTF-8"?>
<svg width="24" height="24" viewBox="0 0 24 24" xmlns="http://www.w3.org/2000/svg">
 <path d="m10.99 2.5998-6.5 3.82c-0.61 0.36-0.98999 1.02-0.98999 1.72v7.71c0 0.71 0.37999 1.36 0.98999 1.72l6.5 3.82c0.63 0.37 1.4 0.37 2.03 0l6.5-3.82c0.61-0.36 0.99-1.02 0.99-1.72v-7.71c0-0.71-0.38-1.36-0.99-1.72l-6.5-3.82c-0.63-0.37-1.41-0.37-2.03 0z" opacity=".4"/>
 <path d="m17.39 14.359-2.61-1.57 0.26-0.26c0.29-0.29 0.29-0.77 0-1.06s-0.77-0.29-1.06 0l-0.52 0.52-1.8-1.08 0.38-0.38c0.29-0.29 0.29-0.76996 0-1.06s-0.77-0.29-1.06 0l-0.65 0.64996-1.87-1.12 3.54-2.13 4.61 2.77c0.36 0.21 0.82 0.1 1.03-0.26 0.21-0.35 0.1-0.82-0.26-1.03l-5-3c-0.24-0.14-0.54-0.14-0.77 0l-5 3c-0.23 0.14-0.35999 0.38-0.35999 0.64s0.13999 0.51 0.35999 0.64l2.61 1.57-0.25995 0.26c-0.29 0.29-0.29 0.77 0 1.06 0.15 0.15 0.33997 0.22 0.52997 0.22s0.38003-0.07 0.53001-0.22l0.52-0.52 1.8 1.08-0.38 0.38c-0.29 0.29-0.29 0.77 0 1.06 0.15 0.15 0.34 0.22 0.53 0.22s0.38-0.07 0.53-0.22l0.65-0.65 1.86 1.12-3.53 2.14-4.61-2.77c-0.36-0.21-0.82002-0.1-1.03 0.26s-0.09999 0.82 0.26001 1.03l5 3c0.12 0.07 0.25 0.11 0.39 0.11s0.27-0.04 0.39-0.11l5-3c0.23-0.14 0.36-0.38 0.36-0.64s-0.15-0.52-0.37-0.65z"/>
</svg>
